X:434
T:Ely Court. (p).1701.PLFD.434
M:4/4
L:1/8
Q:1/2=90
S:Playford, Dancing Master,11th Ed.,1701.
O:England
Z:Chris Partington.
K:Bb
d2|B2(AG)A2^F2|G3A (BA)(Bc)|d2(cB) (de)f2|A6d2|
B2(AG)A2^F2|G3A (Bc)d2|e2(dc)d2g2|^f6:|
|:d2|g2(ga)b2f2|d2(cB)f2B2|A2d2(cB)(AG)|e6(dc)|
d2g2a2^f2|g2(fe) (dc)(BA)|B2f2(AB)(AG)|^F2D4F2|
G2ABc2F2|c2f2c2(c/d/e)|d2g2(dc)(BA)|B2(B/c/d)B2(AG)|G6:|
